symbols/web/offline_share/materialsymbolsrounded/offline_share_wght200fill1_40px.svg

<svg xmlns="http://www.w3.org/2000/svg" height="40" width="40"><path d="M16.083 31.167q-1 0-1.708-.709-.708-.708-.708-1.75V6.417q0-1.042.708-1.75.708-.709 1.708-.709h12.334q1 0 1.708.709.708.708.708 1.75v22.291q0 1.042-.708 1.75-.708.709-1.708.709ZM29.417 9.542H15.083v16.041h14.334ZM11.583 35.625q-1 0-1.708-.687-.708-.688-.708-1.73V10q0-.292.208-.5.208-.208.5-.208.292 0 .5.208.208.208.208.5v23.208q0 .459.292.75.292.292.708.292h14.792q.292 0 .5.188.208.187.208.52 0 .292-.208.48-.208.187-.5.187Zm7-15.083q-.291 0-.479-.188-.187-.187-.187-.479V17.25q0-.5.312-.792.313-.291.813-.291h5.375l-1.375-1.334q-.209-.208-.209-.479t.209-.521q.25-.208.5-.208t.458.208L26.167 16q.208.208.291.417.084.208.084.458t-.084.437q-.083.188-.291.396L24 19.875q-.167.208-.438.208-.27 0-.52-.208-.209-.208-.209-.479t.209-.479l1.375-1.375H19.25v2.333q0 .292-.188.479-.187.188-.479.188Z"/></svg>

<svg xmlns="http://www.w3.org/2000/svg" height="40" width="40"><path d="M16.083 31.167Q15.083 31.167 14.375 30.458Q13.667 29.75 13.667 28.708V6.417Q13.667 5.375 14.375 4.667Q15.083 3.958 16.083 3.958H28.417Q29.417 3.958 30.125 4.667Q30.833 5.375 30.833 6.417V28.708Q30.833 29.75 30.125 30.458Q29.417 31.167 28.417 31.167ZM29.417 9.542H15.083V25.583H29.417ZM11.583 35.625Q10.583 35.625 9.875 34.938Q9.167 34.25 9.167 33.208V10Q9.167 9.708 9.375 9.5Q9.583 9.292 9.875 9.292Q10.167 9.292 10.375 9.5Q10.583 9.708 10.583 10V33.208Q10.583 33.667 10.875 33.958Q11.167 34.25 11.583 34.25H26.375Q26.667 34.25 26.875 34.438Q27.083 34.625 27.083 34.958Q27.083 35.25 26.875 35.438Q26.667 35.625 26.375 35.625ZM18.583 20.542Q18.292 20.542 18.104 20.354Q17.917 20.167 17.917 19.875V17.25Q17.917 16.75 18.229 16.458Q18.542 16.167 19.042 16.167H24.417L23.042 14.833Q22.833 14.625 22.833 14.354Q22.833 14.083 23.042 13.833Q23.292 13.625 23.542 13.625Q23.792 13.625 24 13.833L26.167 16Q26.375 16.208 26.458 16.417Q26.542 16.625 26.542 16.875Q26.542 17.125 26.458 17.312Q26.375 17.5 26.167 17.708L24 19.875Q23.833 20.083 23.562 20.083Q23.292 20.083 23.042 19.875Q22.833 19.667 22.833 19.396Q22.833 19.125 23.042 18.917L24.417 17.542H19.25V19.875Q19.25 20.167 19.062 20.354Q18.875 20.542 18.583 20.542Z"/></svg>
